icons/edge-light.svg

<svg width="256" height="256" viewBox="0 0 256 256" fill="none" xmlns="http://www.w3.org/2000/svg">
<g clip-path="url(#clip0_80_10)">
<path d="M196 0H60C26.8629 0 0 26.8629 0 60V196C0 229.137 26.8629 256 60 256H196C229.137 256 256 229.137 256 196V60C256 26.8629 229.137 0 196 0Z" fill="#F4F2ED"/>
<g clip-path="url(#clip1_80_10)">
<path d="M197.979 170.225C195.632 171.444 193.212 172.517 190.732 173.438C182.882 176.36 174.568 177.842 166.191 177.813C133.857 177.813 105.693 155.596 105.693 127.021C105.735 123.195 106.796 119.449 108.767 116.169C110.737 112.889 113.546 110.193 116.904 108.359C87.6465 109.59 80.127 140.078 80.127 157.92C80.127 208.506 126.68 213.564 136.729 213.564C142.129 213.564 150.264 211.992 155.186 210.42L156.074 210.146C174.91 203.637 190.967 190.907 201.602 174.053C201.911 173.541 202.043 172.941 201.979 172.347C201.915 171.752 201.658 171.195 201.246 170.76C200.835 170.326 200.293 170.038 199.703 169.941C199.113 169.845 198.507 169.944 197.979 170.225Z" fill="url(#paint0_linear_80_10)"/>
<path opacity="0.35" d="M197.979 170.225C195.632 171.444 193.212 172.517 190.732 173.438C182.882 176.36 174.568 177.842 166.191 177.813C133.857 177.813 105.693 155.596 105.693 127.021C105.735 123.195 106.796 119.449 108.767 116.169C110.737 112.889 113.546 110.193 116.904 108.359C87.6465 109.59 80.127 140.078 80.127 157.92C80.127 208.506 126.68 213.564 136.729 213.564C142.129 213.564 150.264 211.992 155.186 210.42L156.074 210.146C174.91 203.637 190.967 190.907 201.602 174.053C201.911 173.541 202.043 172.941 201.979 172.347C201.915 171.752 201.658 171.195 201.246 170.76C200.835 170.326 200.293 170.038 199.703 169.941C199.113 169.845 198.507 169.944 197.979 170.225Z" fill="url(#paint1_radial_80_10)"/>
<path d="M112.256 204.951C106.171 201.172 100.897 196.223 96.7382 190.391C91.9896 183.891 88.7209 176.431 87.1615 168.534C85.6021 160.637 85.7898 152.494 87.7114 144.677C89.633 136.86 93.2421 129.559 98.2852 123.285C103.328 117.011 109.683 111.917 116.904 108.359C119.092 107.334 122.715 105.557 127.568 105.625C130.984 105.651 134.347 106.467 137.394 108.009C140.442 109.551 143.092 111.776 145.137 114.512C147.887 118.211 149.395 122.686 149.443 127.295C149.443 127.158 166.191 72.8809 94.7558 72.8809C64.7461 72.8809 40.0683 101.318 40.0683 126.338C39.949 139.554 42.7745 152.631 48.3398 164.619C57.454 184.027 73.3767 199.412 93.0854 207.855C112.794 216.298 134.917 217.211 155.254 210.42C148.129 212.67 140.6 213.347 133.188 212.402C125.776 211.458 118.657 208.916 112.324 204.951H112.256Z" fill="url(#paint2_linear_80_10)"/>
<path opacity="0.41" d="M112.256 204.951C106.171 201.172 100.897 196.223 96.7382 190.391C91.9896 183.891 88.7209 176.431 87.1615 168.534C85.6021 160.637 85.7898 152.494 87.7114 144.677C89.633 136.86 93.2421 129.559 98.2852 123.285C103.328 117.011 109.683 111.917 116.904 108.359C119.092 107.334 122.715 105.557 127.568 105.625C130.984 105.651 134.347 106.467 137.394 108.009C140.442 109.551 143.092 111.776 145.137 114.512C147.887 118.211 149.395 122.686 149.443 127.295C149.443 127.158 166.191 72.8809 94.7558 72.8809C64.7461 72.8809 40.0683 101.318 40.0683 126.338C39.949 139.554 42.7745 152.631 48.3398 164.619C57.454 184.027 73.3767 199.412 93.0854 207.855C112.794 216.298 134.917 217.211 155.254 210.42C148.129 212.67 140.6 213.347 133.188 212.402C125.776 211.458 118.657 208.916 112.324 204.951H112.256Z" fill="url(#paint3_radial_80_10)"/>
<path d="M144.18 141.719C143.564 142.402 141.855 143.428 141.855 145.547C141.855 147.324 143.018 149.102 145.137 150.537C154.912 157.373 173.437 156.416 173.506 156.416C180.793 156.411 187.946 154.452 194.219 150.742C200.534 147.048 205.774 141.768 209.419 135.425C213.064 129.082 214.988 121.896 215 114.58C215.205 99.2676 209.531 89.082 207.275 84.5703C192.715 56.2695 161.475 40 127.5 40C104.505 39.9977 82.4337 49.0474 66.0592 65.1916C49.6846 81.3358 40.3234 103.277 40 126.27C40.3418 101.318 65.1562 81.1523 94.6875 81.1523C97.0801 81.1523 110.752 81.3574 123.398 87.9883C132.283 92.4033 139.641 99.3799 144.521 108.018C148.691 115.264 149.443 124.492 149.443 128.184C149.443 131.875 147.598 137.275 144.111 141.787L144.18 141.719Z" fill="url(#paint4_radial_80_10)"/>
<path d="M144.18 141.719C143.564 142.402 141.855 143.428 141.855 145.547C141.855 147.324 143.018 149.102 145.137 150.537C154.912 157.373 173.437 156.416 173.506 156.416C180.793 156.411 187.946 154.452 194.219 150.742C200.534 147.048 205.774 141.768 209.419 135.425C213.064 129.082 214.988 121.896 215 114.58C215.205 99.2676 209.531 89.082 207.275 84.5703C192.715 56.2695 161.475 40 127.5 40C104.505 39.9977 82.4337 49.0474 66.0592 65.1916C49.6846 81.3358 40.3234 103.277 40 126.27C40.3418 101.318 65.1562 81.1523 94.6875 81.1523C97.0801 81.1523 110.752 81.3574 123.398 87.9883C132.283 92.4033 139.641 99.3799 144.521 108.018C148.691 115.264 149.443 124.492 149.443 128.184C149.443 131.875 147.598 137.275 144.111 141.787L144.18 141.719Z" fill="url(#paint5_radial_80_10)"/>
</g>
</g>
<defs>
<linearGradient id="paint0_linear_80_10" x1="80.127" y1="160.996" x2="202.08" y2="160.996" gradientUnits="userSpaceOnUse">
<stop stop-color="#0C59A4"/>
<stop offset="1" stop-color="#114A8B"/>
</linearGradient>
<radialGradient id="paint1_radial_80_10" cx="0" cy="0" r="1" gradientUnits="userSpaceOnUse" gradientTransform="translate(147.461 161.916) scale(65.2148 61.9541)">
<stop offset="0.7" stop-opacity="0"/>
<stop offset="0.9" stop-opacity="0.5"/>
<stop offset="1"/>
</radialGradient>
<linearGradient id="paint2_linear_80_10" x1="144.385" y1="108.086" x2="68.3007" y2="191.006" gradientUnits="userSpaceOnUse">
<stop stop-color="#1B9DE2"/>
<stop offset="0.2" stop-color="#1595DF"/>
<stop offset="0.7" stop-color="#0680D7"/>
<stop offset="1" stop-color="#0078D4"/>
</linearGradient>
<radialGradient id="paint3_radial_80_10" cx="0" cy="0" r="1" gradientUnits="userSpaceOnUse" gradientTransform="translate(88.2309 175.992) rotate(-81.3844) scale(98.0178 79.1885)">
<stop offset="0.8" stop-opacity="0"/>
<stop offset="0.9" stop-opacity="0.5"/>
<stop offset="1"/>
</radialGradient>
<radialGradient id="paint4_radial_80_10" cx="0" cy="0" r="1" gradientUnits="userSpaceOnUse" gradientTransform="translate(57.6982 72.3449) rotate(92.2906) scale(138.47 294.912)">
<stop stop-color="#35C1F1"/>
<stop offset="0.1" stop-color="#34C1ED"/>
<stop offset="0.2" stop-color="#2FC2DF"/>
<stop offset="0.3" stop-color="#2BC3D2"/>
<stop offset="0.7" stop-color="#36C752"/>
</radialGradient>
<radialGradient id="paint5_radial_80_10" cx="0" cy="0" r="1" gradientUnits="userSpaceOnUse" gradientTransform="translate(204.104 92.8418) rotate(73.7398) scale(66.5137 54.0889)">
<stop stop-color="#66EB6E"/>
<stop offset="1" stop-color="#66EB6E" stop-opacity="0"/>
</radialGradient>
<clipPath id="clip0_80_10">
<rect width="256" height="256" fill="white"/>
</clipPath>
<clipPath id="clip1_80_10">
<rect width="175" height="175" fill="white" transform="translate(40 40)"/>
</clipPath>
</defs>
</svg>

<svg xmlns="http://www.w3.org/2000/svg" width="256" height="256" fill="none"><g clip-path="url(#clip0_80_10)"><path fill="#F4F2ED" d="M196 0H60C26.863 0 0 26.863 0 60v136c0 33.137 26.863 60 60 60h136c33.137 0 60-26.863 60-60V60c0-33.137-26.863-60-60-60"/><g clip-path="url(#clip1_80_10)"><path fill="url(#paint0_linear_80_10)" d="M197.979 170.225a64 64 0 0 1-7.247 3.213 69.7 69.7 0 0 1-24.541 4.375c-32.334 0-60.498-22.217-60.498-50.792a21.53 21.53 0 0 1 11.211-18.662c-29.257 1.231-36.777 31.719-36.777 49.561 0 50.586 46.553 55.644 56.602 55.644 5.4 0 13.535-1.572 18.457-3.144l.888-.274a87.7 87.7 0 0 0 45.528-36.093 2.736 2.736 0 0 0-3.623-3.828"/><path fill="url(#paint1_radial_80_10)" d="M197.979 170.225a64 64 0 0 1-7.247 3.213 69.7 69.7 0 0 1-24.541 4.375c-32.334 0-60.498-22.217-60.498-50.792a21.53 21.53 0 0 1 11.211-18.662c-29.257 1.231-36.777 31.719-36.777 49.561 0 50.586 46.553 55.644 56.602 55.644 5.4 0 13.535-1.572 18.457-3.144l.888-.274a87.7 87.7 0 0 0 45.528-36.093 2.736 2.736 0 0 0-3.623-3.828" opacity=".35"/><path fill="url(#paint2_linear_80_10)" d="M112.256 204.951a54.1 54.1 0 0 1-15.518-14.56 55.17 55.17 0 0 1 20.166-82.032c2.188-1.025 5.811-2.802 10.664-2.734a22.15 22.15 0 0 1 17.569 8.887 21.8 21.8 0 0 1 4.306 12.783c0-.137 16.748-54.414-54.687-54.414-30.01 0-54.688 28.437-54.688 53.457a89 89 0 0 0 8.272 38.281 87.5 87.5 0 0 0 106.914 45.801 51.6 51.6 0 0 1-42.93-5.469z"/><path fill="url(#paint3_radial_80_10)" d="M112.256 204.951a54.1 54.1 0 0 1-15.518-14.56 55.17 55.17 0 0 1 20.166-82.032c2.188-1.025 5.811-2.802 10.664-2.734a22.15 22.15 0 0 1 17.569 8.887 21.8 21.8 0 0 1 4.306 12.783c0-.137 16.748-54.414-54.687-54.414-30.01 0-54.688 28.437-54.688 53.457a89 89 0 0 0 8.272 38.281 87.5 87.5 0 0 0 106.914 45.801 51.6 51.6 0 0 1-42.93-5.469z" opacity=".41"/><path fill="url(#paint4_radial_80_10)" d="M144.18 141.719c-.616.683-2.325 1.709-2.325 3.828 0 1.777 1.163 3.555 3.282 4.99 9.775 6.836 28.3 5.879 28.369 5.879a40.74 40.74 0 0 0 20.713-5.674A41.97 41.97 0 0 0 215 114.58c.205-15.312-5.469-25.498-7.725-30.01C192.715 56.27 161.475 40 127.5 40A87.5 87.5 0 0 0 40 126.27c.342-24.952 25.156-45.118 54.688-45.118 2.392 0 16.064.205 28.71 6.836a49.6 49.6 0 0 1 21.123 20.03c4.17 7.246 4.922 16.474 4.922 20.166 0 3.691-1.845 9.091-5.332 13.603z"/><path fill="url(#paint5_radial_80_10)" d="M144.18 141.719c-.616.683-2.325 1.709-2.325 3.828 0 1.777 1.163 3.555 3.282 4.99 9.775 6.836 28.3 5.879 28.369 5.879a40.74 40.74 0 0 0 20.713-5.674A41.97 41.97 0 0 0 215 114.58c.205-15.312-5.469-25.498-7.725-30.01C192.715 56.27 161.475 40 127.5 40A87.5 87.5 0 0 0 40 126.27c.342-24.952 25.156-45.118 54.688-45.118 2.392 0 16.064.205 28.71 6.836a49.6 49.6 0 0 1 21.123 20.03c4.17 7.246 4.922 16.474 4.922 20.166 0 3.691-1.845 9.091-5.332 13.603z"/></g></g><defs><radialGradient id="paint1_radial_80_10" cx="0" cy="0" r="1" gradientTransform="matrix(65.2148 0 0 61.9541 147.461 161.916)" gradientUnits="userSpaceOnUse"><stop offset=".7" stop-opacity="0"/><stop offset=".9" stop-opacity=".5"/><stop offset="1"/></radialGradient><radialGradient id="paint3_radial_80_10" cx="0" cy="0" r="1" gradientTransform="matrix(14.68419 -96.91163 78.29482 11.86334 88.23 175.991)" gradientUnits="userSpaceOnUse"><stop offset=".8" stop-opacity="0"/><stop offset=".9" stop-opacity=".5"/><stop offset="1"/></radialGradient><radialGradient id="paint4_radial_80_10" cx="0" cy="0" r="1" gradientTransform="matrix(-5.53435 138.35936 -294.67636 -11.787 57.698 72.345)" gradientUnits="userSpaceOnUse"><stop stop-color="#35C1F1"/><stop offset=".1" stop-color="#34C1ED"/><stop offset=".2" stop-color="#2FC2DF"/><stop offset=".3" stop-color="#2BC3D2"/><stop offset=".7" stop-color="#36C752"/></radialGradient><radialGradient id="paint5_radial_80_10" cx="0" cy="0" r="1" gradientTransform="matrix(18.6236 63.85322 -51.9254 15.1447 204.104 92.843)" gradientUnits="userSpaceOnUse"><stop stop-color="#66EB6E"/><stop offset="1" stop-color="#66EB6E" stop-opacity="0"/></radialGradient><linearGradient id="paint0_linear_80_10" x1="80.127" x2="202.08" y1="160.996" y2="160.996" gradientUnits="userSpaceOnUse"><stop stop-color="#0C59A4"/><stop offset="1" stop-color="#114A8B"/></linearGradient><linearGradient id="paint2_linear_80_10" x1="144.385" x2="68.301" y1="108.086" y2="191.006" gradientUnits="userSpaceOnUse"><stop stop-color="#1B9DE2"/><stop offset=".2" stop-color="#1595DF"/><stop offset=".7" stop-color="#0680D7"/><stop offset="1" stop-color="#0078D4"/></linearGradient><clipPath id="clip0_80_10"><path fill="#fff" d="M0 0h256v256H0z"/></clipPath><clipPath id="clip1_80_10"><path fill="#fff" d="M40 40h175v175H40z"/></clipPath></defs></svg>
